X:6103
T:Gavot,(harmony). BC.47b
M:C
L:1/8
Q:100
S:Benjamin Cooke MS.circa 1770, F.Kidson Coll.
R:Gavotte
O:England
A:x
Z:John Bagnall
K:D
A2 F2 | A2 G2 F2 A2 | d2 c2 B2 A2 | G2 F2 E2 D2 | A4 |!|
c2 A2 | d2 c2 B2 d2 | c2 B2 A2 F2 | B2 A2 G2 E2 | A2 G2|!
 F2 B2 | e4 A2 A2 | d4 B2 G2 | A2 FG  A2 A2 | D4 ||


